X:1
T: Mrs Menzies of Culdare's Strathspey
C:R. Mackintosh
R:Strathspey
Q: 128
K:D
M:4/4
L:1/16
|:B2|AD3 F3D dD3 FD3|E3F GFED B,E3 E3B|AD3 F3D dD3 FD3|Aa3 e3g fd3 d3B|
AD3 F3D dD3 FD3|E3F GFED B,E3 E3F|A,F3 DA,3 B,2d2 c3B|A3G F3E F2D2 D2fg|
a3d f3d A3d fd3|e2d2 f2d2 b2e2 e2fg|a3d fd3 A3d gd3|B3d A3G F2D2 D2fg|
ad3 fd3 A3d fd3|e3d fd3 b2e2 e2fg|af3 ge3 fd3 ec3|d2B2 A3G F2D2 D2:|
